X:1
T:Slumber Song 
T:Charles James Dorn (1839 - 1909)
T:Guitar Album, Op.27
%%score { ( 1 2 ) ( 3 4 ) }
L:1/8
Q:3/8=60
M:6/8
K:C
V:1 treble-8 nm="Guitare classique"
V:2 treble-8 
V:3 tab stafflines=6 strings=E2,A2,D3,G3,B3,E4 nostems nm="Guitare classique [Tablature]"
V:4 tab stafflines=6 strings=E2,A2,D3,G3,B3,E4 nostems 
V:1
"^Andante""_" [Ec]dc [FB]!2!AG | [Ec]dc [FB]AG | [Ec]de fGf | e!4!dc !>![GBg]3 | [Ec]dc [FB]AG | %5
 [Ec]dc [FB]AG | GBc !2!A!3!^c!4!d | [GB]ed [Ec]2 g | BGg cGg | fBG ecG | BGg cGg | [GB]3 [GBg]3 | %12
 [Gcg]gg [Gcg]ec | GcB !2!Af!4!d | eGc dGB | c3- c2 x!fine! |] !2!E!3!AB !1!cBA | [FB]A^G AEE | %18
 EAB cBA | ^GEG Bee | EAB cBA | [FB]A^G AEE | EAB cBA | ^GeG A2 e | !>!e[^GB]e !>!e[Ac]e | %25
 [^Ge]dB cAc | e[^GB]e e[Ac]e | eB^G E2 e | fdf ece | dBd cAc | !2!cB!3!A AB^G | A3- A2 x!D.C.! || %32
V:2
 C3 C3 | C3 C3 | C3 C3 | C3 G,3 | C3 C3 | C3 C3 | E,3 F,3 | G,3 C2 z | F3 E3 | D3 C3 | G,3 G,3 | %11
 G,3 G,3 | E,3 E,3 | E3 !3!F3 | G,3 G,3 | C3- C2 z |] A,3 A,3 | A,3 A,3 | A,3 A,3 | E,6 | A,3 A,3 | %21
 A,3 A,3 | A,3 A,3 | E,3 A,2 z | E,3 E,3 | E,3 A,3 | E,3 E,3 | E,3- E,2 z | D3 E3 | E,3 A,3 | %30
 !1!_E3 E,2 E, | A,3- A,2 z || %32
V:3
 [!4!E,!2!C] !2!D !2!C [!4!F,!2!B,] !3!A, !3!G, | [!4!E,!2!C] !2!D !2!C [!4!F,!2!B,] !3!A, !3!G, | %2
 [!4!E,!2!C] !2!D !1!E !1!F !3!G, !1!F | !1!E !2!D !2!C [!3!G,!2!B,!1!G]3 | %4
 [!4!E,!2!C] !2!D !2!C [!4!F,!2!B,] !3!A, !3!G, | [!4!E,!2!C] !2!D !2!C [!4!F,!2!B,] !3!A, !3!G, | %6
 !3!G, !2!B, !2!C !3!A, !2!^C !2!D | [!3!G,!2!B,] !1!E !2!D [!4!E,!2!C]2 !1!G | %8
 !2!B, !3!G, !1!G !2!C !3!G, !1!G | !1!F !2!B, !3!G, !1!E !2!C !3!G, | %10
 !2!B, !3!G, !1!G !2!C !3!G, !1!G | [!3!G,!2!B,]3 [!3!G,!2!B,!1!G]3 | %12
 [!3!G,!2!C!1!G] !1!G !1!G [!3!G,!2!C!1!G] !1!E !2!C | !3!G, !2!C !2!B, !3!A, !1!F !2!D | %14
 !1!E !3!G, !2!C !2!D !3!G, !2!B, | !2!C3- !2!C2 x |] !4!E, !3!A, !2!B, !2!C !2!B, !3!A, | %17
 [!4!F,!2!B,] !3!A, !3!^G, !3!A, !4!E, !4!E, | !4!E, !3!A, !2!B, !2!C !2!B, !3!A, | %19
 !3!^G, !4!E, !3!G, !2!B, !1!E !1!E | !4!E, !3!A, !2!B, !2!C !2!B, !3!A, | %21
 [!4!F,!2!B,] !3!A, !3!^G, !3!A, !4!E, !4!E, | !4!E, !3!A, !2!B, !2!C !2!B, !3!A, | %23
 !3!^G, !1!E !3!G, !3!A,2 !1!E | !1!E [!3!^G,!2!B,] !1!E !1!E [!3!A,!2!C] !1!E | %25
 [!3!^G,!1!E] !2!D !2!B, !2!C !3!A, !2!C | !1!E [!3!^G,!2!B,] !1!E !1!E [!3!A,!2!C] !1!E | %27
 !1!E !2!B, !3!^G, !4!E,2 !1!E | !1!F !2!D !1!F !1!E !2!C !1!E | !2!D !2!B, !2!D !2!C !3!A, !2!C | %30
 !2!C !2!B, !3!A, !3!A, !2!B, !3!^G, | !3!A,3- !3!A,2 x || %32
V:4
 !5!C,3 !5!C,3 | !5!C,3 !5!C,3 | !5!C,3 !5!C,3 | !5!C,3 !6!G,,3 | !5!C,3 !5!C,3 | !5!C,3 !5!C,3 | %6
 !6!E,,3 !6!F,,3 | !6!G,,3 !5!C,2 x | !4!F,3 !4!E,3 | !4!D,3 !5!C,3 | !6!G,,3 !6!G,,3 | %11
 !6!G,,3 !6!G,,3 | !6!E,,3 !6!E,,3 | !4!E,3 !4!F,3 | !6!G,,3 !6!G,,3 | !5!C,3- !5!C,2 x |] %16
 !5!A,,3 !5!A,,3 | !5!A,,3 !5!A,,3 | !5!A,,3 !5!A,,3 | !6!E,,6 | !5!A,,3 !5!A,,3 | %21
 !5!A,,3 !5!A,,3 | !5!A,,3 !5!A,,3 | !6!E,,3 !5!A,,2 x | !6!E,,3 !6!E,,3 | !6!E,,3 !5!A,,3 | %26
 !6!E,,3 !6!E,,3 | !6!E,,3- !6!E,,2 x | !4!D,3 !4!E,3 | !6!E,,3 !5!A,,3 | !4!_E,3 !6!E,,2 !6!E,, | %31
 !5!A,,3- !5!A,,2 x || %32

